X:13
T:Miss Taylor's Reel - Keith
R:reel
C:William Marshall
S:1822 Collection p48
B:Athole
M:C|
Z:Paul Stewart Cranford (P.S.C.), <http://www.cranfordpub.com>
L:1/8
Q:333
K:C
cBcd cdef|gfed cBAG|cEGc EcGc|dDdc cBAG|
cBcd cdef|gfed cBAG|cEGc EcGc|dDdB c2 c2||
||CEGc ecGE|FAde fdBG|cege agfe|fAdc cBAG|
EFGc ecGE|FAde fdBG|geag fedc|BGdB c2 c2|]

